X:1
T: First of October
N:
C:
S:Bonaparte crossing the Rhine
A:
O:
R:
M:4/4
K:D
I:speed 228
%W: A
% voice 1 (1 lines, 31 notes)
K:D
M:4/4
L:1/16
F4 G4 |A6 B2 A4 F4 |A8 d4 e4 |f6 e2 f4 a4 |d8 d4 c4 |B4 B2 c2 d4 B4 |A4 F4 D4 F4 |E8 E6 F2 |E8 F4 G4 |
%W:
% voice 1 (1 lines, 29 notes)
A6 B2 A4 F4 |A8 d4 e4 |f6 e2 f4 a4 |d8 d4 c4 |B4 B2 c2 d4 B4 |A4 F4 E4 F4 |D8 D6 E2 |D8 d4 e4 |
%W: B
% voice 1 (1 lines, 26 notes)
f6 e2 f4 g4 |a12 A4 |B6 A2 B4 c4 |d12 A4 |B6 c2 d4 B4 |A4 F4 D4 F4 |E8 E6 F2 |E8 F4 G4 |
%W:
% voice 1 (1 lines, 28 notes)
A6 B2 A4 F4 |A8 d4 e4 |f6 e2 f4 a4 |d8 d4 c4 |B4 B2 c2 d4 B4 |A4 F4 E4 F2 E2 |D8 D6 E2 |D8 ||
